SVG/motorcycle.svg

<?xml version="1.0" encoding="utf-8"?>
<!-- Generated by IcoMoon.io -->
<!DOCTYPE svg PUBLIC "-//W3C//DTD SVG 1.1//EN" "http://www.w3.org/Graphics/SVG/1.1/DTD/svg11.dtd">
<svg version="1.1" xmlns="http://www.w3.org/2000/svg" xmlns:xlink="http://www.w3.org/1999/xlink" width="18" height="14" viewBox="0 0 18 14">
<path fill="#444444" d="M17.977 8.094q0.094 0.805-0.172 1.551t-0.773 1.277-1.238 0.828-1.535 0.242q-1.258-0.086-2.184-0.977t-1.051-2.141q-0.094-0.867 0.215-1.645t0.926-1.332l-0.555-0.836q-0.75 0.625-1.18 1.516t-0.43 1.906q0 0.211-0.145 0.363t-0.355 0.152h-2.539q-0.18 1.281-1.164 2.141t-2.297 0.859q-1.445 0-2.473-1.027t-1.027-2.473 1.027-2.473 2.473-1.027q0.594 0 1.187 0.211l0.187-0.352q-0.961-0.859-2.375-0.859h-0.5q-0.203 0-0.352-0.148t-0.148-0.352 0.148-0.352 0.352-0.148h1q0.609 0 1.133 0.105t0.91 0.301 0.559 0.309 0.398 0.285h4.898l-0.664-1h-1.734q-0.234 0-0.383-0.176t-0.109-0.41q0.031-0.18 0.18-0.297t0.336-0.117h1.977q0.258 0 0.414 0.219l0.547 0.82 0.891-0.891q0.148-0.148 0.359-0.148h0.789q0.203 0 0.352 0.148t0.148 0.352v1q0 0.203-0.148 0.352t-0.352 0.148h-1.398l0.898 1.344q1.023-0.492 2.148-0.281 1.117 0.203 1.906 1.051t0.922 1.98zM3.5 11q0.898 0 1.586-0.566t0.867-1.434h-2.453q-0.273 0-0.43-0.242-0.141-0.25-0.008-0.492l1.148-2.164q-0.367-0.102-0.711-0.102-1.031 0-1.766 0.734t-0.734 1.766 0.734 1.766 1.766 0.734zM14.5 11q1.031 0 1.766-0.734t0.734-1.766-0.734-1.766-1.766-0.734q-0.469 0-0.945 0.187l1.359 2.031q0.117 0.18 0.078 0.383t-0.211 0.312q-0.117 0.086-0.281 0.086-0.273 0-0.414-0.227l-1.359-2.031q-0.727 0.742-0.727 1.758 0 1.031 0.734 1.766t1.766 0.734z"></path>
</svg>

<svg xmlns="http://www.w3.org/2000/svg" viewBox="0 0 18 14"><path d="M17.977 8.094q.094.805-.172 1.55t-.773 1.278-1.238.828-1.535.242q-1.26-.086-2.185-.977t-1.05-2.14q-.095-.868.214-1.646t.925-1.333l-.555-.836q-.75.626-1.18 1.517T10 8.483q0 .21-.145.363t-.355.152H6.96q-.18 1.28-1.163 2.14T3.5 12q-1.445 0-2.473-1.027T0 8.5t1.027-2.473T3.5 4.998q.594 0 1.187.21l.187-.35q-.96-.86-2.375-.86H2q-.204 0-.353-.148T1.5 3.498t.147-.352T2 2.998h1q.608 0 1.132.105t.91.3.56.31.397.285h4.897l-.664-1H8.5q-.235 0-.384-.176t-.11-.41q.032-.18.18-.297t.337-.117H10.5q.258 0 .414.22l.547.82.892-.892q.148-.148.36-.148h.788q.203 0 .352.148t.148.352v1q0 .203-.148.352t-.352.148h-1.398L13 5.342q1.023-.492 2.148-.28 1.117.202 1.906 1.05t.922 1.98zM3.5 11q.898 0 1.586-.566T5.953 9H3.5q-.273 0-.43-.242-.14-.25-.008-.492L4.21 6.102Q3.843 6 3.5 6q-1.032 0-1.767.734T1 8.5t.733 1.766T3.5 11zm11 0q1.03 0 1.766-.734T17 8.5t-.734-1.766T14.5 6q-.47 0-.945.187l1.36 2.03q.116.18.077.384t-.21.313Q14.663 9 14.5 9q-.273 0-.414-.228l-1.36-2.03Q12 7.48 12 8.498q0 1.03.734 1.765T14.5 11z" /></svg>
